X:1
T:Title
%%score { 1 | ( 2 3 ) }
L:1/8
Q:1/4=87
M:6/8
K:Ab
V:1 treble nm="Grand Piano"
V:2 bass 
V:3 bass 
V:1
 .[A,CE]2 [A,CG] .[CEA]2 [A,CF] | .[G,DE]3 [G,DE]3 | .[A,CE]2 [A,CG] .[CEA]2 [A,CF] | [G,DE]6 | %4
w: H.~J.~E.~Holmes * * *||||
 .[A,CE]2 [CEB] .[CE=Ac]2 [CEc] | [DFB]3 [DF]3 | AGF GE[DEB] | [CEA]6 | AGF GC[=EA] | G3 F3 | %10
w: ||||||
 AB[EAc] .[DFc]2 [DGB] | [CEA]6 | .[CEc]2 [FAc] .[DFd]2 [DFd] | [EAc]3 [EGB]3 | %14
w: ||||
 .[EAe]2 [DFB] .[CEc]2 [DGB] | [CEA]6 |] %16
w: ||
V:2
 z FA,, z GE,, | z2 F E,,3 | z FA,, z GE,, | B,,3 E,,3 | z AA,, z[K:treble] d[K:bass]F,, | %5
 B,,3 B,,3 | [E,B,D]2 [E,B,D] [E,B,D]2 E, | A,,6 | [F,CF]2 [A,C] .[=E,B,C]2 [C,C] | %9
 [F,B,=E]3 [F,A,C]3 | [E,CE]2 E, z GE,, | A,,6 | z[K:treble] B[K:bass]F, z[K:treble] c[K:bass]B,, | %13
 E,3 E,2 D, | z AD, z AE,, | A,,6 |] %16
V:3
 .A,,3 .E,,3 | B,,3 z3 | .A,,3 .E,,3 | x6 | .A,,3 .F,,3[K:treble][K:bass] | x6 | x6 | x6 | x6 | %9
 x6 | z3 .E,,3 | x6 | .A,3[K:treble][K:bass] .B,,3[K:treble][K:bass] | x6 | .C,3 .E,3 | x6 |] %16

